X: 20
T: The Virgins Frolick
R: reel
M: 2/4
L: 1/16
Z: 2010 John Chambers <jc:trillian.mit.edu>
B: Longman ed. "Twenty Four Country Dances", p.34 London 1770
K: A
|: A2Ac e2eg | a2e2 {d}c2BA | d2c2B2A2 | G2A2B4 |\
   A2Ac e2eg | a2e2 {d}c2BA | d2c2B2A2 | E2G2A4 :|
|: c2cd e2e2 | e2a2 e4 | d2Bc dcBA | GABGE4 |\
   c2cd c2B2 | A2g2 a4 | e2dc dcBA | E2G2A4 :|


%%sep 5 1 500

